assets/dark_mode.svg

<svg fill="none" height="20" viewBox="0 0 21 20" width="21" xmlns="http://www.w3.org/2000/svg"><path clip-rule="evenodd" d="m11.6801 15.2633c.3349-.0851.5394-.4186.4535-.7495-.089-.3301-.4338-.5238-.7673-.4421-.3601.0906-.7279.1358-1.0984.1358-2.42873 0-4.4016-1.9199-4.4016-4.27139 0-2.21143 1.70594-4.03974 3.97636-4.25127.34374-.03048.60194-.32909.56714-.66995-.0322-.3412-.344-.58284-.686-.55265-2.91431.26941-5.1167 2.62224-5.1167 5.47387 0 3.03569 2.54197 5.49999 5.6608 5.49999.4741 0 .9513-.0576 1.4122-.1728zm-1.3815-10.06884c-.0512.20762-.2339.37039-.46497.39079-1.95034.18161-3.49633 1.53207-3.93917 3.304.44271-1.77212 1.98879-3.12277 3.93926-3.30439.23088-.02039.41358-.18297.46488-.3904zm1.7393 9.59424c-.045.1784-.1865.3279-.3824.3777-.4529.1131-.9216.1697-1.3876.1697-3.06638 0-5.5608-2.4223-5.5608-5.39999 0-.43715.05275-.86243.1527-1.26988-.09988.40734-.1526.83248-.1526 1.26948 0 2.97769 2.49441 5.39999 5.5608 5.39999.466 0 .9347-.0566 1.3875-.1697.1959-.0498.3373-.199.3824-.3773zm3.5545-7.07174c0-.94923.4284-1.84958 1.174-2.46878l-.0317-.10611c.0681-.06711.1151-.15021.1375-.23946.0198-.07861.0206-.16201-.0001-.24347-.0477-.18771-.1986-.33428-.3945-.378l.0216-.09721c-.386-.08649-.7905-.13097-1.2001-.13097-2.9732 0-5.396 2.3486-5.396 5.24286 0 2.89428 2.4228 5.24288 5.396 5.24288 1.96 0 3.7677-1.0341 4.7207-2.6988.1177-.204.104-.4573-.0318-.6505-.135-.189-.3672-.293-.6034-.2595-2.052.2722-3.7922-1.28487-3.7922-3.21294zm1.1422-2.57512.0001.00023c-.0102.0101-.021.01984-.0322.02918-.5594.46454-.9459 1.08327-1.1146 1.76374.1686-.68063.5552-1.2995 1.1147-1.76413.0112-.0093.0218-.01898.032-.02902zm3.2473 6.53196c-.0111.04-.0273.0789-.0487.1159-.9348 1.6329-2.7089 2.6486-4.634 2.6486-2.9207 0-5.296-2.3066-5.296-5.14287 0-.38626.044-.76269.1275-1.12481-.0835.36224-.1276.73881-.1276 1.1252 0 2.83628 2.3753 5.14288 5.296 5.14288 1.9251 0 3.6993-1.0157 4.634-2.6486.0214-.0371.0377-.0762.0488-.1163zm-16.40793-7.79501c-.04175.16855.00496.35377.14013.48503l1.27898 1.23943c.10328.10028.23832.15171.37337.15171s.2701-.05143.37337-.15171c.07186-.06978.11872-.15481.14058-.24449-.0219.08953-.06873.17442-.14048.2441-.10327.10028-.23832.15171-.37337.15171s-.2701-.05143-.37337-.15171l-1.27898-1.23943c-.13506-.13116-.18181-.31619-.14023-.48464zm.07054.55684 1.27891 1.23936c.12246.11888.28276.17997.44303.17997.16031 0 .32057-.06104.44304-.17997.24699-.23985.24699-.63135 0-.8712l-1.27634-1.23943c-.24534-.23825-.64337-.23825-.88871 0-.24699.23985-.24692.63142.00007.87127zm10.68869 3.2839c0 2.23357 1.6902 4.08617 3.8888 4.41907-.7637.7394-1.812 1.1715-2.9229 1.1715-2.2831 0-4.1368-1.8043-4.1368-4.01428 0-2.1385 1.7328-3.8944 3.9115-4.00849-.4792.71759-.7406 1.55782-.7406 2.4322zm.1 0c0 2.20599 1.6889 4.03537 3.8773 4.33067.041.0056.0822.0106.1236.015.0001-.0001.0002-.0002.0003-.0003-2.2481-.2418-4.0011-2.09833-4.0011-4.34576 0-.3294.038-.65386.1115-.96843-.0736.31469-.1116.63929-.1116.96882zm.8366-2.53799c-.0418.00027-.0835.00115-.125.0026-1.9253.06739-3.5278 1.38787-3.9647 3.14597.4462-1.79627 2.1092-3.13581 4.09-3.14897-.0001.00013-.0002.00026-.0003.0004zm-5.0019 10.82596c-.34372 0-.6296.2735-.6296.6143v1.8643c0 .3408.28588.6143.6296.6143.3437 0 .6296-.2735.6296-.6143v-1.8643c0-.3408-.2859-.6143-.6296-.6143zm0-12.14282c.3437 0 .6296-.27346.6296-.61429v-1.73571c0-.34084-.2859-.614289-.6296-.614289-.34372 0-.6296.273459-.6296.614289v1.73571c0 .34083.28588.61429.6296.61429zm-6.25255 6.13572c0-.34084-.28588-.61429-.6296-.61429h-1.85625c-.34372 0-.629598.27345-.629598.61429 0 .3408.285878.6143.629598.6143h1.85625c.34372 0 .6296-.2735.6296-.6143zm.97646 4.2616-1.34473 1.3058c-.24699.2398-.24699.6313 0 .8712.12248.1189.28273.18.44304.18.1603 0 .32056-.0611.44303-.18l1.34518-1.3063c.24684-.2397.24699-.6309.00046-.8707-.24537-.2414-.6415-.2412-.88698 0zm-1.41554 1.6216c-.04097.1681.00589.3525.14058.4833.10327.1002.23832.1517.37336.1517.13505 0 .2701-.0515.37337-.1517l1.34519-1.3063c.07175-.0697.11857-.1546.14047-.2441-.02186.0897-.06871.1747-.14057.2445l-1.34519 1.3062c-.10327.1003-.23832.1518-.37336.1518-.13505 0-.2701-.0515-.37337-.1518-.13479-.1308-.18162-.3154-.14048-.4836zm6.17479.6261c-.00835.0361-.01276.0737-.01276.1121v1.8643c0 .2829.23832.5143.5296.5143.2493 0 .4597-.1695.5153-.3956-.0557.2259-.2661.3952-.5152.3952-.29128 0-.5296-.2314-.5296-.5143v-1.8643c0-.0383.00437-.0757.01266-.1117zm.00166-15.1141c-.00936.03813-.01432.07787-.01432.11869v1.73571c0 .28286.23832.51429.5296.51429.2491 0 .4595-.16927.5152-.39522-.0556.22614-.266.39561-.5153.39561-.29128 0-.5296-.23143-.5296-.51429v-1.73571c0-.04096.00499-.08083.01442-.11908zm-5.8517 8.7235c-.05569.2259-.26606.3952-.51517.3952h-1.85625c-.29128 0-.5296-.2314-.5296-.5143 0-.04081.00496-.08055.01433-.11868-.00943.03825-.014428.07812-.014428.11908 0 .2828.238318.5143.529598.5143h1.85625c.24925 0 .45972-.1695.51527-.3956z" fill="#fff" fill-rule="evenodd"/></svg>

<svg width="21" height="20" viewBox="0 0 21 20" fill="none" xmlns="http://www.w3.org/2000/svg">
<path fill-rule="evenodd" clip-rule="evenodd" d="M11.6801 15.2633C12.015 15.1782 12.2195 14.8447 12.1336 14.5138C12.0446 14.1837 11.6998 13.99 11.3663 14.0717C11.0062 14.1623 10.6384 14.2075 10.2679 14.2075C7.83917 14.2075 5.8663 12.2876 5.8663 9.93611C5.8663 7.72468 7.57224 5.89637 9.84266 5.68484C10.1864 5.65436 10.4446 5.35575 10.4098 5.01489C10.3776 4.67369 10.0658 4.43205 9.7238 4.46224C6.80949 4.73165 4.6071 7.08448 4.6071 9.93611C4.6071 12.9718 7.14907 15.4361 10.2679 15.4361C10.742 15.4361 11.2192 15.3785 11.6801 15.2633ZM10.2986 5.19446C10.2474 5.40208 10.0647 5.56485 9.83363 5.58525C7.88329 5.76686 6.3373 7.11732 5.89446 8.88925C6.33717 7.11713 7.88325 5.76648 9.83372 5.58486C10.0646 5.56447 10.2473 5.40189 10.2986 5.19446ZM12.0379 14.7887C11.9929 14.9671 11.8514 15.1166 11.6555 15.1664C11.2026 15.2795 10.7339 15.3361 10.2679 15.3361C7.20152 15.3361 4.7071 12.9138 4.7071 9.93611C4.7071 9.49896 4.75985 9.07368 4.8598 8.66623C4.75992 9.07357 4.7072 9.49871 4.7072 9.93571C4.7072 12.9134 7.20161 15.3357 10.268 15.3357C10.734 15.3357 11.2027 15.2791 11.6555 15.166C11.8514 15.1162 11.9928 14.967 12.0379 14.7887ZM15.5924 7.71696C15.5924 6.76773 16.0208 5.86738 16.7664 5.24818L16.7347 5.14207C16.8028 5.07496 16.8498 4.99186 16.8722 4.90261C16.892 4.824 16.8928 4.7406 16.8721 4.65914C16.8244 4.47143 16.6735 4.32486 16.4776 4.28114L16.4992 4.18393C16.1132 4.09744 15.7087 4.05296 15.2991 4.05296C12.3259 4.05296 9.9031 6.40156 9.9031 9.29582C9.9031 12.1901 12.3259 14.5387 15.2991 14.5387C17.2591 14.5387 19.0668 13.5046 20.0198 11.8399C20.1375 11.6359 20.1238 11.3826 19.988 11.1894C19.853 11.0004 19.6208 10.8964 19.3846 10.9299C17.3326 11.2021 15.5924 9.64503 15.5924 7.71696ZM16.7346 5.14184L16.7347 5.14207C16.7245 5.15217 16.7137 5.16191 16.7025 5.17125C16.1431 5.63579 15.7566 6.25452 15.5879 6.93499C15.7565 6.25436 16.1431 5.63549 16.7026 5.17086C16.7138 5.16156 16.7244 5.15188 16.7346 5.14184ZM19.9819 11.6738C19.9708 11.7138 19.9546 11.7527 19.9332 11.7897C18.9984 13.4226 17.2243 14.4383 15.2992 14.4383C12.3785 14.4383 10.0032 12.1317 10.0032 9.29543C10.0032 8.90917 10.0472 8.53274 10.1307 8.17062C10.0472 8.53286 10.0031 8.90943 10.0031 9.29582C10.0031 12.1321 12.3784 14.4387 15.2991 14.4387C17.2242 14.4387 18.9984 13.423 19.9331 11.7901C19.9545 11.753 19.9708 11.7139 19.9819 11.6738ZM3.57397 3.87879C3.53222 4.04734 3.57893 4.23256 3.7141 4.36382L4.99308 5.60325C5.09636 5.70353 5.2314 5.75496 5.36645 5.75496C5.5015 5.75496 5.63655 5.70353 5.73982 5.60325C5.81168 5.53347 5.85854 5.44844 5.8804 5.35876C5.8585 5.44829 5.81167 5.53318 5.73992 5.60286C5.63665 5.70314 5.5016 5.75457 5.36655 5.75457C5.2315 5.75457 5.09645 5.70314 4.99318 5.60286L3.7142 4.36343C3.57914 4.23227 3.53239 4.04724 3.57397 3.87879ZM3.64451 4.43563L4.92342 5.67499C5.04588 5.79387 5.20618 5.85496 5.36645 5.85496C5.52676 5.85496 5.68702 5.79392 5.80949 5.67499C6.05648 5.43514 6.05648 5.04364 5.80949 4.80379L4.53315 3.56436C4.28781 3.32611 3.88978 3.32611 3.64444 3.56436C3.39745 3.80421 3.39752 4.19578 3.64451 4.43563ZM14.3332 7.71953C14.3332 9.9531 16.0234 11.8057 18.222 12.1386C17.4583 12.878 16.41 13.3101 15.2991 13.3101C13.016 13.3101 11.1623 11.5058 11.1623 9.29582C11.1623 7.15732 12.8951 5.40142 15.0738 5.28733C14.5946 6.00492 14.3332 6.84515 14.3332 7.71953ZM14.4332 7.71953C14.4332 9.92552 16.1221 11.7549 18.3105 12.0502C18.3515 12.0558 18.3927 12.0608 18.4341 12.0652C18.4342 12.0651 18.4343 12.065 18.4344 12.0649C16.1863 11.8231 14.4333 9.96657 14.4333 7.71914C14.4333 7.38974 14.4713 7.06528 14.5448 6.75071C14.4712 7.0654 14.4332 7.39 14.4332 7.71953ZM15.2698 5.18154C15.228 5.18181 15.1863 5.18269 15.1448 5.18414C13.2195 5.25153 11.617 6.57201 11.1801 8.33011C11.6263 6.53384 13.2893 5.1943 15.2701 5.18114C15.27 5.18127 15.2699 5.1814 15.2698 5.18154ZM10.2679 16.0075C9.92418 16.0075 9.6383 16.281 9.6383 16.6218V18.4861C9.6383 18.8269 9.92418 19.1004 10.2679 19.1004C10.6116 19.1004 10.8975 18.8269 10.8975 18.4861V16.6218C10.8975 16.281 10.6116 16.0075 10.2679 16.0075ZM10.2679 3.86468C10.6116 3.86468 10.8975 3.59122 10.8975 3.25039V1.51468C10.8975 1.17384 10.6116 0.900391 10.2679 0.900391C9.92418 0.900391 9.6383 1.17385 9.6383 1.51468V3.25039C9.6383 3.59122 9.92418 3.86468 10.2679 3.86468ZM4.01535 10.0004C4.01535 9.65956 3.72947 9.38611 3.38575 9.38611H1.5295C1.18578 9.38611 0.899902 9.65956 0.899902 10.0004C0.899902 10.3412 1.18578 10.6147 1.5295 10.6147H3.38575C3.72947 10.6147 4.01535 10.3412 4.01535 10.0004ZM4.99181 14.262L3.64708 15.5678C3.40009 15.8076 3.40009 16.1991 3.64708 16.439C3.76956 16.5579 3.92981 16.619 4.09012 16.619C4.25042 16.619 4.41068 16.5579 4.53315 16.439L5.87833 15.1327C6.12517 14.893 6.12532 14.5018 5.87879 14.262C5.63342 14.0206 5.23729 14.0208 4.99181 14.262ZM3.57627 15.8836C3.5353 16.0517 3.58216 16.2361 3.71685 16.3669C3.82012 16.4671 3.95517 16.5186 4.09021 16.5186C4.22526 16.5186 4.36031 16.4671 4.46358 16.3669L5.80877 15.0606C5.88052 14.9909 5.92734 14.906 5.94924 14.8165C5.92738 14.9062 5.88053 14.9912 5.80867 15.061L4.46348 16.3672C4.36021 16.4675 4.22516 16.519 4.09012 16.519C3.95507 16.519 3.82002 16.4675 3.71675 16.3672C3.58196 16.2364 3.53513 16.0518 3.57627 15.8836ZM9.75106 16.5097C9.74271 16.5458 9.7383 16.5834 9.7383 16.6218V18.4861C9.7383 18.769 9.97662 19.0004 10.2679 19.0004C10.5172 19.0004 10.7276 18.8309 10.7832 18.6048C10.7275 18.8307 10.5171 19 10.268 19C9.97672 19 9.7384 18.7686 9.7384 18.4857V16.6214C9.7384 16.5831 9.74277 16.5457 9.75106 16.5097ZM9.75272 1.3956C9.74336 1.43373 9.7384 1.47347 9.7384 1.51429V3.25C9.7384 3.53286 9.97672 3.76429 10.268 3.76429C10.5171 3.76429 10.7275 3.59502 10.7832 3.36907C10.7276 3.59521 10.5172 3.76468 10.2679 3.76468C9.97662 3.76468 9.7383 3.53325 9.7383 3.25039V1.51468C9.7383 1.47372 9.74329 1.43385 9.75272 1.3956ZM3.90102 10.1191C3.84533 10.345 3.63496 10.5143 3.38585 10.5143H1.5296C1.23832 10.5143 1 10.2829 1 10C1 9.95919 1.00496 9.91945 1.01433 9.88132C1.0049 9.91957 0.999902 9.95944 0.999902 10.0004C0.999902 10.2832 1.23822 10.5147 1.5295 10.5147H3.38575C3.635 10.5147 3.84547 10.3452 3.90102 10.1191Z" fill="white"/>
</svg>
